public/discover-features-card-vector.svg

<svg width="374" height="384" viewBox="0 0 374 384" fill="none" xmlns="http://www.w3.org/2000/svg">
<path d="M296.179 133.867C325.97 197.599 349.63 278.122 296.474 324.436C243.817 370.313 166.943 335.625 108.133 297.702C59.2423 266.175 26.906 214.211 37.3104 157.315C49.0163 93.3009 92.2848 33.2174 157.58 27.3031C221.891 21.478 268.992 75.7066 296.179 133.867Z" fill="#A0DCF1" fill-opacity="0.4"/>
<path d="M304.607 175.449C314.041 242.542 313.163 323.448 251.536 351.533C190.489 379.353 129.822 326.076 86.5981 274.801C50.6645 232.175 35.6066 175.248 61.0569 125.575C89.691 69.6893 146.12 26.1543 207.551 38.7341C268.057 51.1244 295.997 114.222 304.607 175.449Z" fill="#EAF6FB" fill-opacity="0.67"/>
</svg>

<svg width="374" height="384" fill="none" xmlns="http://www.w3.org/2000/svg"><path d="M296.179 133.867c29.791 63.732 53.451 144.255.295 190.569-52.657 45.877-129.531 11.189-188.341-26.734-48.89-31.527-81.227-83.491-70.823-140.387C49.016 93.301 92.285 33.217 157.58 27.303c64.311-5.825 111.412 48.404 138.599 106.564Z" fill="#A0DCF1" fill-opacity=".4"/><path d="M304.607 175.449c9.434 67.093 8.556 147.999-53.071 176.084-61.047 27.82-121.714-25.457-164.938-76.732-35.934-42.626-50.991-99.553-25.541-149.226 28.634-55.886 85.063-99.42 146.494-86.84 60.506 12.39 88.446 75.487 97.056 136.714Z" fill="#EAF6FB" fill-opacity=".67"/></svg>
